!!!SOCIAL_FUNCTION:	songs of the drum-presentation ceremony
!!!PDT:	1913
!!!OTL: No_80_The_Song_of_Butterfly.krn
!!!REG: Great_Lakes
!!!LANG: Non-Tone
!!!LING_GROUP: Algonquin
**kern	**kern
*staff2	*staff1
=1-	=1-
*clefF4	*clefF4
*k[b-e-a-d-]	*k[b-e-a-d-]
*M2/4	*M2/4
8GG/L	16e-\LL
.	16e-\J
8GG/J	8e-\J
8GG/L	4e-\
8GG/J	.
=2	=2
8GG/L	8.c\L
8GG/J	.
.	16B-\Jk
8GG/L	4A-\
8GG/J	.
=3	=3
2r	16c\LL
.	16c\
.	(16c\
.	16B-\JJ)
.	4A-\
=4	=4
2r	16A-\LK
.	8.A-\J
.	4A-\
=5	=5
2r	16c\LL
.	16c\J
.	8e-\J
.	4c\
=6	=6
2r	12c\L
.	12c\
.	12B-\J
.	4A-\
=7	=7
2r	16c\LL
.	16c\
.	16c\
.	16B-\JJ
.	4A-\
=8	=8
2r	16A-\LK
.	8.A-\J
.	4F\
=9	=9
2r	8A-\L
.	8c\J
.	4A-\
=10	=10
2r	16A-\LK
.	8.F\J
.	4E-\
=11	=11
2r	8F\L
.	8F\J
.	8.E-/L
.	16C/Jk
=12	=12
2r	4E-\
.	16E-/LK
.	8.C/J
=13	=13
2r	8.AA-/L
.	16AA-/Jk
.	4AA-/
=14	=14
2r	2AA-/
==	==
*-	*-
